optimized/24/outline/education.svg

<svg viewBox="0 0 24 24" fill="none" xmlns="http://www.w3.org/2000/svg">
  <g clip-path="url(#clip0_2208_12351)">
    <path fill-rule="evenodd" clip-rule="evenodd" d="M13.4835 3.28702C12.5312 2.90433 11.4688 2.90433 10.5166 3.28702L1.62774 6.85912C0.820648 7.18346 0.782821 8.31714 1.56648 8.69505L4.76028 10.2352V17.7395C4.76028 17.789 4.76516 17.8384 4.77483 17.887L5.50922 17.7395C4.77483 17.887 4.77517 17.8887 4.77517 17.8887L4.77552 17.8905L4.77628 17.8942L4.77801 17.9023L4.78237 17.9214C4.78569 17.9353 4.78987 17.9518 4.79509 17.9705C4.80554 18.008 4.82014 18.0547 4.8403 18.1092C4.88066 18.2184 4.94315 18.3586 5.03864 18.5185C5.23102 18.8406 5.55058 19.2313 6.07249 19.6058C7.11459 20.3536 8.90806 21 12 21C15.0919 21 16.8854 20.3536 17.9275 19.6058C18.4494 19.2313 18.769 18.8406 18.9614 18.5185C19.0568 18.3586 19.1193 18.2184 19.1597 18.1092C19.1799 18.0547 19.1945 18.008 19.2049 17.9705C19.2101 17.9518 19.2143 17.9353 19.2176 17.9214L19.222 17.9023L19.2237 17.8942L19.2245 17.8905L19.2248 17.8887C19.2248 17.8887 19.2252 17.887 18.4908 17.7395L19.2252 17.887C19.2348 17.8384 19.2397 17.789 19.2397 17.7395V10.2352L20.2383 9.75368V15.733C20.2383 16.1485 20.5736 16.4854 20.9872 16.4854C21.4009 16.4854 21.7362 16.1485 21.7362 15.733V9.03135L22.4335 8.69506C23.2172 8.31715 23.1794 7.18347 22.3723 6.85913L13.4835 3.28702ZM20.761 7.83239L12.9272 4.68425C12.332 4.44507 11.668 4.44506 11.0728 4.68425L3.23904 7.83238L10.9197 11.5363C11.6026 11.8656 12.3974 11.8656 13.0803 11.5363L20.761 7.83239ZM6.25816 17.6192V10.9576L10.2715 12.893C11.3642 13.4199 12.6358 13.4199 13.7285 12.893L17.7418 10.9576V17.6192C17.7286 17.6499 17.7079 17.6924 17.6769 17.7442C17.5885 17.8924 17.4087 18.1288 17.0569 18.3812C16.3515 18.8875 14.8996 19.4951 12 19.4951C9.10045 19.4951 7.64853 18.8875 6.94311 18.3812C6.59127 18.1288 6.41153 17.8924 6.32306 17.7442C6.29212 17.6924 6.27143 17.6499 6.25816 17.6192Z" fill="#333333"/>
  </g>
  <defs>
    <clipPath id="clip0_2208_12351">
      <rect width="24" height="24" fill="white"/>
    </clipPath>
  </defs>
</svg>

<svg xmlns="http://www.w3.org/2000/svg" width="24" height="24" fill="none">
  <g clip-path="url(#a)">
    <path fill="#333" fill-rule="evenodd" d="M13.483 3.287a3.977 3.977 0 0 0-2.966 0l-8.89 3.572c-.806.324-.844 1.458-.06 1.836l3.193 1.54v7.505c0 .049.005.098.015.147l.734-.148c-.734.148-.734.15-.734.15v.002l.001.003.002.008.004.02a1.342 1.342 0 0 0 .058.187c.04.11.103.25.199.41.192.322.512.712 1.033 1.087C7.115 20.354 8.908 21 12 21s4.885-.646 5.927-1.394c.522-.375.842-.765 1.034-1.088a2.49 2.49 0 0 0 .244-.547l.013-.05.004-.019.002-.008v-.005s.001-.002-.733-.15l.734.148a.761.761 0 0 0 .015-.148v-7.504l.998-.481v5.979a.75.75 0 0 0 .75.752.75.75 0 0 0 .748-.752V9.031l.697-.336c.784-.378.746-1.512-.06-1.836l-8.89-3.572Zm7.278 4.545-7.834-3.148a2.486 2.486 0 0 0-1.854 0L3.239 7.832l7.68 3.704c.684.33 1.478.33 2.161 0l7.681-3.704ZM6.258 17.62v-6.661l4.013 1.935a3.978 3.978 0 0 0 3.457 0l4.014-1.935v6.661c-.013.03-.034.073-.065.125-.088.148-.268.385-.62.637-.705.506-2.157 1.114-5.057 1.114-2.9 0-4.351-.608-5.057-1.114-.352-.252-.531-.489-.62-.637a1.088 1.088 0 0 1-.065-.125Z" clip-rule="evenodd"/>
  </g>
  <defs>
    <clipPath id="a">
      <path fill="#fff" d="M0 0h24v24H0z"/>
    </clipPath>
  </defs>
</svg>
